src/assets/star.svg

<svg width="24" height="25" viewBox="0 0 24 25" fill="none" xmlns="http://www.w3.org/2000/svg">
<path d="M10.7407 1.33262C10.8691 1.10246 11.0529 0.911485 11.274 0.778753C11.495 0.646022 11.7455 0.576172 12.0004 0.576172C12.2554 0.576172 12.5059 0.646022 12.7269 0.778753C12.9479 0.911485 13.1318 1.10246 13.2602 1.33262L16.5203 7.1806L22.8516 8.61395C23.1006 8.6705 23.3311 8.79428 23.5201 8.97294C23.7091 9.1516 23.85 9.3789 23.9287 9.63219C24.0074 9.88548 24.0212 10.1559 23.9687 10.4165C23.9163 10.6771 23.7993 10.9188 23.6296 11.1174L19.3139 16.1646L19.967 22.8987C19.9928 23.1639 19.9516 23.4315 19.8474 23.6748C19.7433 23.9181 19.5798 24.1285 19.3735 24.2852C19.1671 24.4419 18.9251 24.5392 18.6714 24.5675C18.4178 24.5959 18.1615 24.5542 17.9282 24.4466L12.0004 21.7164L6.07272 24.4466C5.83934 24.5542 5.58305 24.5959 5.32943 24.5675C5.07581 24.5392 4.83373 24.4419 4.62738 24.2852C4.42103 24.1285 4.25762 23.9181 4.15347 23.6748C4.04931 23.4315 4.00806 23.1639 4.03383 22.8987L4.68702 16.1646L0.371287 11.1187C0.201256 10.92 0.0840642 10.6782 0.0314103 10.4175C-0.0212436 10.1567 -0.00751692 9.88609 0.0712199 9.6326C0.149957 9.37911 0.290949 9.15164 0.480121 8.9729C0.669293 8.79415 0.900026 8.67038 1.14929 8.61395L7.48058 7.1806L10.7407 1.33262Z" fill="#FFC800"/>
</svg>

<svg width="24" height="25" fill="none" xmlns="http://www.w3.org/2000/svg"><path d="M10.74 1.333c.13-.23.313-.422.534-.554a1.41 1.41 0 0 1 1.453 0c.22.132.405.323.533.554l3.26 5.848 6.332 1.433c.249.056.48.18.668.359.19.179.33.406.409.66.078.252.092.523.04.784-.053.26-.17.502-.34.7l-4.315 5.048.653 6.734c.026.265-.015.532-.12.776a1.512 1.512 0 0 1-.474.61 1.4 1.4 0 0 1-1.445.161L12 21.717l-5.927 2.73a1.4 1.4 0 0 1-1.446-.16 1.512 1.512 0 0 1-.474-.611 1.585 1.585 0 0 1-.12-.776l.654-6.734-4.316-5.046a1.55 1.55 0 0 1-.34-.701 1.59 1.59 0 0 1 .04-.785c.079-.254.22-.481.41-.66.188-.179.419-.303.668-.359l6.332-1.433 3.26-5.848Z" fill="#FFC800"/></svg>
